admin/src/theme/img/arrow_back.svg

<svg width="24" height="24" viewBox="0 0 24 24" xmlns="http://www.w3.org/2000/svg">
  <g fill="none" fill-rule="evenodd">
    <path d="M0 0h24v24H0z"/>
    <path d="m11.8232233 21.8232233-9.6464466-9.6464466c-.09763108-.0976311-.09763108-.2559223 0-.3535534l9.6464466-9.6464466c.0976311-.09763108.2559223-.09763108.3535534 0l.9589466.9589466c.0976311.09763108.0976311.25592232 0 .3535534l-7.1464466 7.1464466c-.09763108.0976311-.09763108.2559223 0 .3535534.04688409.0468841.11047257.0732233.17677669.0732233H21.75c.1380712 0 .25.1119288.25.25v1.375c0 .1380712-.1119288.25-.25.25H6.16605339c-.13807119 0-.25.1119288-.25.25 0 .0663041.02633921.1298926.07322331.1767767l7.1464466 7.1464466c.0976311.0976311.0976311.2559223 0 .3535534l-.9589466.9589466c-.0976311.0976311-.2559223.0976311-.3535534 0Z" stroke="#000" fill="#000" fill-rule="nonzero"/>
  </g>
</svg>

<?xml version="1.0" encoding="UTF-8"?>
<svg width="24px" height="24px" viewBox="0 0 24 24" version="1.1" xmlns="http://www.w3.org/2000/svg" xmlns:xlink="http://www.w3.org/1999/xlink">
    <g id="Squat-laskuri" stroke="none" stroke-width="1" fill="none" fill-rule="evenodd">
        <g id="colors_and_typography" transform="translate(-1154.000000, -795.000000)">
            <g id="icons" transform="translate(722.000000, 748.000000)">
                <g id="back_arrow" transform="translate(432.000000, 47.000000)">
                    <rect id="Rectangle" x="0" y="0" width="24" height="24"></rect>
                    <path d="M11.8232233,21.8232233 L2.1767767,12.1767767 C2.07914562,12.0791456 2.07914562,11.9208544 2.1767767,11.8232233 L11.8232233,2.1767767 C11.9208544,2.07914562 12.0791456,2.07914562 12.1767767,2.1767767 L13.1357233,3.1357233 C13.2333544,3.23335438 13.2333544,3.39164562 13.1357233,3.4892767 L5.9892767,10.6357233 C5.89164562,10.7333544 5.89164562,10.8916456 5.9892767,10.9892767 C6.03616079,11.0361608 6.09974927,11.0625 6.16605339,11.0625 L21.75,11.0625 C21.8880712,11.0625 22,11.1744288 22,11.3125 L22,12.6875 C22,12.8255712 21.8880712,12.9375 21.75,12.9375 L6.16605339,12.9375 C6.0279822,12.9375 5.91605339,13.0494288 5.91605339,13.1875 C5.91605339,13.2538041 5.9423926,13.3173926 5.9892767,13.3642767 L13.1357233,20.5107233 C13.2333544,20.6083544 13.2333544,20.7666456 13.1357233,20.8642767 L12.1767767,21.8232233 C12.0791456,21.9208544 11.9208544,21.9208544 11.8232233,21.8232233 Z" id="Path" stroke="currentColor" fill="currentColor" fill-rule="nonzero"></path>
                </g>
            </g>
        </g>
    </g>
</svg>
